X:471
T:Hamilton’s Rant. RH.471
R:rant
S:Rev.R.Harrison’s MS,c1815,Cumbria
O:England
A:Temple Sowerby,Cumbria
Z:vmp.Simon Wilson. Review PJH, 2008.
M:C
L:1/8
Q:2/4=70
K:G
Bddg edcB|cAeA cAeA|Bceg edcB|Agfa g2G2:|!
|:BGGB BAGB|AFFA ADDc|BGGB BGGB|AFDF G2G2:|

